azure-icons/Azure-Stack.svg

<svg xmlns="http://www.w3.org/2000/svg" viewBox="0 0 18 18"><defs><linearGradient id="a" x1="12.3" y1=".49" x2="12.3" y2="17.33" gradientUnits="userSpaceOnUse"><stop offset="0" stop-color="#5ea0ef"/><stop offset=".18" stop-color="#559cec"/><stop offset=".47" stop-color="#3c91e5"/><stop offset=".84" stop-color="#1380da"/><stop offset="1" stop-color="#0078d4"/></linearGradient><linearGradient id="b" x1="9.48" y1="17.51" x2="9.48" y2="9.35" gradientUnits="userSpaceOnUse"><stop offset="0" stop-color="#198ab3"/><stop offset="0" stop-color="#198ab3"/><stop offset=".14" stop-color="#22a5cb"/><stop offset=".3" stop-color="#29bade"/><stop offset=".47" stop-color="#2ec9eb"/><stop offset=".68" stop-color="#31d1f3"/><stop offset="1" stop-color="#32d4f5"/></linearGradient></defs><path d="M16.68.49H7.92a.57.57 0 00-.57.56v12.48a10.47 10.47 0 011.42-1h1.66l.92 1.22v1.85l-1.16.84-1.61-.2-1.23-1.16v1.69a.57.57 0 00.57.56h8.76a.56.56 0 00.56-.56V1.05a.56.56 0 00-.56-.56z" fill="url(#a)"/><path d="M8.66 2.24h1.61a.14.14 0 01.14.14v2.08a.14.14 0 01-.14.14H8.66a.14.14 0 01-.14-.14V2.38a.14.14 0 01.14-.14zm2.83 0h1.61a.14.14 0 01.14.14v2.08a.14.14 0 01-.14.14h-1.61a.14.14 0 01-.14-.14V2.38a.14.14 0 01.14-.14zm2.84 0h1.61a.14.14 0 01.14.14v2.08a.14.14 0 01-.14.14h-1.61a.14.14 0 01-.14-.14V2.38a.14.14 0 01.14-.14zM8.66 6h1.61a.14.14 0 01.14.14v2.1a.14.14 0 01-.14.14H8.66a.14.14 0 01-.14-.14V6.16A.14.14 0 018.66 6zm2.83 0h1.61a.14.14 0 01.14.14v2.1a.14.14 0 01-.14.14h-1.61a.14.14 0 01-.14-.14V6.16a.14.14 0 01.14-.16zm2.84 0h1.61a.14.14 0 01.14.14v2.1a.14.14 0 01-.14.14h-1.61a.14.14 0 01-.14-.14V6.16a.14.14 0 01.14-.16zM8.66 9.8h1.61a.14.14 0 01.14.14V12a.14.14 0 01-.14.14H8.66a.14.14 0 01-.14-.14V9.94a.14.14 0 01.14-.14zm2.83 0h1.61a.14.14 0 01.14.14V12a.14.14 0 01-.14.14h-1.61a.14.14 0 01-.14-.14V9.94a.14.14 0 01.14-.14zm0 3.78h1.61a.14.14 0 01.14.14v3.08a.14.14 0 01-.14.14h-1.61a.14.14 0 01-.14-.14v-3.08a.14.14 0 01.14-.14zm2.84-3.78h1.61a.14.14 0 01.14.14V12a.14.14 0 01-.14.14h-1.61a.14.14 0 01-.14-.14V9.94a.14.14 0 01.14-.14z" fill="#f2f2f2"/><path d="M9.5 13a1.3 1.3 0 00-1.24 1h-4.5a2.82 2.82 0 00-.08.65v.06h4.58A1.29 1.29 0 109.5 13z" fill="#50e6ff"/><path d="M13 12.46a3.26 3.26 0 00-3.4-3.11 3.34 3.34 0 00-3.2 2.18 3.18 3.18 0 00-2.54 2H8A1.72 1.72 0 119.5 16a1.73 1.73 0 01-1.53-1H3.75a3.2 3.2 0 003.18 2.42h5.68a2.63 2.63 0 002.6-2.42A2.6 2.6 0 0013 12.46z" fill="url(#b)"/><path d="M9.5 13a1.3 1.3 0 00-1.24 1h-4.5a2.22 2.22 0 01-.47-.06 2.32 2.32 0 01-1.82-2.19 2.33 2.33 0 012.07-2.29h.22l.07-.2a2.56 2.56 0 012.46-1.71 2.64 2.64 0 012.28 1.27 3.08 3.08 0 01.75-.09 3.32 3.32 0 00-3-1.89 3.28 3.28 0 00-3.09 1.95 3 3 0 00-2.47 2.92A3 3 0 003 14.55a2 2 0 00.73.12h4.53A1.29 1.29 0 109.5 13z" fill="#50e6ff"/></svg>

<svg xmlns="http://www.w3.org/2000/svg" width="18" height="18" viewBox="0 0 18 18"><defs><linearGradient id="f88be120-e228-4e82-b7ea-9cc753ab1741" x1="12.3" y1="0.49" x2="12.3" y2="17.33" gradientUnits="userSpaceOnUse"><stop offset="0" stop-color="#5ea0ef" /><stop offset="0.18" stop-color="#559cec" /><stop offset="0.47" stop-color="#3c91e5" /><stop offset="0.84" stop-color="#1380da" /><stop offset="1" stop-color="#0078d4" /></linearGradient><linearGradient id="ba0a489b-e6fc-478b-a844-ae016f2be8bf" x1="9.48" y1="17.51" x2="9.48" y2="9.35" gradientUnits="userSpaceOnUse"><stop offset="0" stop-color="#198ab3" /><stop offset="0" stop-color="#198ab3" /><stop offset="0.14" stop-color="#22a5cb" /><stop offset="0.3" stop-color="#29bade" /><stop offset="0.47" stop-color="#2ec9eb" /><stop offset="0.68" stop-color="#31d1f3" /><stop offset="1" stop-color="#32d4f5" /></linearGradient></defs><g id="b1186d34-5ca3-4e43-992d-40ecef5e891b"><g><path d="M16.68.49H7.92a.57.57,0,0,0-.57.56V13.53a10.47,10.47,0,0,1,1.42-1h1.66l.92,1.22V15.6l-1.16.84-1.61-.2L7.35,15.08v1.69a.57.57,0,0,0,.57.56h8.76a.56.56,0,0,0,.56-.56V1.05A.56.56,0,0,0,16.68.49Z" fill="url(#f88be120-e228-4e82-b7ea-9cc753ab1741)" /><path id="af47f827-8b1b-4acd-8974-8eafe35490c9" d="M8.66,2.24h1.61a.14.14,0,0,1,.14.14V4.46a.14.14,0,0,1-.14.14H8.66a.14.14,0,0,1-.14-.14V2.38A.14.14,0,0,1,8.66,2.24Zm2.83,0H13.1a.14.14,0,0,1,.14.14V4.46a.14.14,0,0,1-.14.14H11.49a.14.14,0,0,1-.14-.14V2.38A.14.14,0,0,1,11.49,2.24Zm2.84,0h1.61a.14.14,0,0,1,.14.14V4.46a.14.14,0,0,1-.14.14H14.33a.14.14,0,0,1-.14-.14V2.38A.14.14,0,0,1,14.33,2.24ZM8.66,6h1.61a.14.14,0,0,1,.14.14V8.24a.14.14,0,0,1-.14.14H8.66a.14.14,0,0,1-.14-.14V6.16A.14.14,0,0,1,8.66,6Zm2.83,0H13.1a.14.14,0,0,1,.14.14V8.24a.14.14,0,0,1-.14.14H11.49a.14.14,0,0,1-.14-.14V6.16A.14.14,0,0,1,11.49,6Zm2.84,0h1.61a.14.14,0,0,1,.14.14V8.24a.14.14,0,0,1-.14.14H14.33a.14.14,0,0,1-.14-.14V6.16A.14.14,0,0,1,14.33,6ZM8.66,9.8h1.61a.14.14,0,0,1,.14.14V12a.14.14,0,0,1-.14.14H8.66A.14.14,0,0,1,8.52,12V9.94A.14.14,0,0,1,8.66,9.8Zm2.83,0H13.1a.14.14,0,0,1,.14.14V12a.14.14,0,0,1-.14.14H11.49a.14.14,0,0,1-.14-.14V9.94A.14.14,0,0,1,11.49,9.8Zm0,3.78H13.1a.14.14,0,0,1,.14.14V16.8a.14.14,0,0,1-.14.14H11.49a.14.14,0,0,1-.14-.14V13.72A.14.14,0,0,1,11.49,13.58ZM14.33,9.8h1.61a.14.14,0,0,1,.14.14V12a.14.14,0,0,1-.14.14H14.33a.14.14,0,0,1-.14-.14V9.94A.14.14,0,0,1,14.33,9.8Z" fill="#f2f2f2" /><path d="M9.5,13A1.3,1.3,0,0,0,8.26,14H3.76a2.82,2.82,0,0,0-.08.65v.06H8.26A1.29,1.29,0,1,0,9.5,13Z" fill="#50e6ff" /><path d="M13,12.46A3.26,3.26,0,0,0,9.6,9.35a3.34,3.34,0,0,0-3.2,2.18,3.18,3.18,0,0,0-2.54,2H8A1.72,1.72,0,1,1,9.5,16a1.73,1.73,0,0,1-1.53-1H3.75a3.2,3.2,0,0,0,3.18,2.42h5.54l.14,0A2.63,2.63,0,0,0,15.21,15,2.6,2.6,0,0,0,13,12.46Z" fill="url(#ba0a489b-e6fc-478b-a844-ae016f2be8bf)" /><path d="M9.5,13A1.3,1.3,0,0,0,8.26,14H3.76a2.22,2.22,0,0,1-.47-.06,2.32,2.32,0,0,1-1.82-2.19A2.33,2.33,0,0,1,3.54,9.46l.22,0,.07-.2A2.56,2.56,0,0,1,6.29,7.55,2.64,2.64,0,0,1,8.57,8.82a3.08,3.08,0,0,1,.75-.09,3.32,3.32,0,0,0-3-1.89A3.28,3.28,0,0,0,3.23,8.79,3,3,0,0,0,.76,11.71,3,3,0,0,0,3,14.55H3a2,2,0,0,0,.73.12H8.26A1.29,1.29,0,1,0,9.5,13Z" fill="#50e6ff" /></g></g></svg>
